pro/src/icons/stroke-pie.svg

<svg width="48" height="48" viewBox="0 0 48 48" fill="none" xmlns="http://www.w3.org/2000/svg">
<path id="icon" fill-rule="evenodd" clip-rule="evenodd" d="M28.604 3.97559C28.0524 3.97559 27.6052 4.42276 27.6052 4.97437V19.3471C27.6052 19.6124 27.7107 19.8667 27.8985 20.0541C28.0862 20.2414 28.3408 20.3464 28.606 20.3459L42.9788 20.3167C43.5301 20.3155 43.9762 19.868 43.9755 19.3166C43.9651 10.8911 37.0274 3.97559 28.604 3.97559ZM29.6028 18.3463V6.0107C36.1388 6.5035 41.4378 11.7882 41.9392 18.3212L29.6028 18.3463ZM5.97315 25.681C5.97315 17.0522 12.8289 9.89681 21.3449 9.41018L21.2716 25.6765C21.2704 25.9422 21.3751 26.1974 21.5626 26.3857C21.75 26.574 22.0047 26.6798 22.2704 26.6798H38.5369C38.0135 35.1619 30.8744 41.9783 22.2704 41.9783C13.3311 41.9783 5.97315 34.6203 5.97315 25.681ZM22.2704 7.38623C12.2279 7.38623 3.97559 15.6385 3.97559 25.681C3.97559 35.7235 12.2279 43.9758 22.2704 43.9758C32.3129 43.9758 40.5652 35.7235 40.5652 25.681C40.5652 25.1294 40.118 24.6822 39.5664 24.6822H23.2737L23.3471 8.38952C23.3483 8.12384 23.2436 7.86864 23.0562 7.68036C22.8687 7.49208 22.6137 7.38623 22.348 7.38623H22.2704Z" fill="currentColor"/>
</svg>

<svg xmlns="http://www.w3.org/2000/svg" width="48" height="48" fill="none"><path id="icon" fill="currentColor" fill-rule="evenodd" d="M28.604 3.976a1 1 0 0 0-.999.998v14.373a1 1 0 0 0 1.001.999l14.373-.03a1 1 0 0 0 .996-1c-.01-8.425-6.948-15.34-15.371-15.34m.999 14.37V6.011c6.536.492 11.835 5.777 12.336 12.31zm-23.63 7.335c0-8.629 6.856-15.784 15.372-16.27l-.073 16.266a1 1 0 0 0 .998 1.003h16.267c-.523 8.482-7.663 15.298-16.267 15.298-8.939 0-16.297-7.358-16.297-16.297M22.27 7.386c-10.042 0-18.294 8.253-18.294 18.295s8.252 18.295 18.294 18.295 18.295-8.252 18.295-18.295a1 1 0 0 0-.999-.999H23.274l.073-16.292a1 1 0 0 0-.999-1.004z" clip-rule="evenodd"/></svg>
